X:1
T:The Two Sisters
M:2/4
L:1/4
K:C
 D| G G| D D/2D/2| G G| D2| B2| B3/2 A/2| B d| d3/2 d/2| e e| e g/2e/2|\
 d d| B B/2A/2| G2| E3/2 D/2| E G| G2|
